X:0688
T:Jocky's Dance.
M:2/4
L:1/16
Q:1/4=104
P:ABA % Aird prints a da capo
I: :| || DC
Z:Jack Campin * www.campin.me.uk * 2009
K:G
P:A
d2d2 edcB|g2f2`e2d2|d2d2 edcB|edcB B2A2|d2d2 edcB|efgf f2e2|defg egfe| dcBA G4:|
P:B
A2AA B2BB|c2cc d2d2|A2AA B2BB|c2cc d4  |A2AA B2BB|c2cc d2d2|A2AA B2BB|^c2cc d4||

